material/.icons/material/calendar-star.svg

<svg xmlns="http://www.w3.org/2000/svg" viewBox="0 0 24 24"><path d="M19 20H5V9h14m-3-7v2H8V2H6v2H5a2 2 0 00-2 2v14a2 2 0 002 2h14a2 2 0 002-2V6a2 2 0 00-2-2h-1V2m-7.12 11H7.27l2.92 2.11-1.11 3.45L12 16.43l2.92 2.13-1.12-3.44L16.72 13h-3.6L12 9.56 10.88 13z"/></svg>

<?xml version="1.0" encoding="UTF-8"?><!DOCTYPE svg PUBLIC "-//W3C//DTD SVG 1.1//EN" "http://www.w3.org/Graphics/SVG/1.1/DTD/svg11.dtd"><svg xmlns="http://www.w3.org/2000/svg" xmlns:xlink="http://www.w3.org/1999/xlink" version="1.1" id="mdi-calendar-star" width="24" height="24" viewBox="0 0 24 24"><path d="M19,20H5V9H19M16,2V4H8V2H6V4H5A2,2 0 0,0 3,6V20A2,2 0 0,0 5,22H19A2,2 0 0,0 21,20V6A2,2 0 0,0 19,4H18V2M10.88,13H7.27L10.19,15.11L9.08,18.56L12,16.43L14.92,18.56L13.8,15.12L16.72,13H13.12L12,9.56L10.88,13Z" /></svg>
